packages/elvis-assets-icons/icons/svg/src/laptop-color.svg

<svg width="24" height="24" viewBox="0 0 24 24" fill="none" xmlns="http://www.w3.org/2000/svg">
<path d="M2.24996 21.999C1.00898 21.999 0 20.9642 0 19.6914C0 19.3663 0.0649989 19.0504 0.193997 18.754L2.24996 14.1389V4.30757C2.24996 3.03482 3.25894 2 4.49992 2H19.4997C20.7406 2 21.7496 3.03482 21.7496 4.30757V14.1399C21.7496 14.1399 23.8046 18.7499 23.8066 18.755C24.3096 19.9181 23.7976 21.2841 22.6636 21.801C22.3736 21.9323 22.0666 22 21.7496 22H2.24996V21.999ZM1.56097 19.3868C1.52097 19.4801 1.49997 19.5837 1.49997 19.6924C1.49997 20.116 1.83697 20.4616 2.24996 20.4616H21.7496C21.8556 20.4616 21.9576 20.4391 22.0546 20.395C22.4316 20.2237 22.6026 19.7683 22.4356 19.3806L20.5177 15.0763H3.48194L1.56097 19.3868ZM20.2497 13.5379V4.30757C20.2497 3.88298 19.9137 3.53838 19.4997 3.53838H4.49992C4.08593 3.53838 3.74994 3.88298 3.74994 4.30757V13.5379H20.2497Z" fill="black"/>
<path d="M10.4998 18.9222C10.0858 18.9222 9.74982 18.5776 9.74982 18.153C9.74982 17.7284 10.0858 17.3838 10.4998 17.3838H13.4998C13.9137 17.3838 14.2497 17.7284 14.2497 18.153C14.2497 18.5776 13.9137 18.9222 13.4998 18.9222H10.4998Z" fill="black"/>
<path d="M10.2301 7.26601C9.9337 7.26601 9.69318 6.94792 9.69318 6.55599C9.69318 6.16405 9.9337 5.84596 10.2301 5.84596C10.5264 5.84596 17.9254 5.84596 17.9254 5.84596C18.2217 5.84596 18.4623 6.16405 18.4623 6.55599C18.4623 6.94792 18.2217 7.26601 17.9254 7.26601C17.9254 7.26601 10.5264 7.26601 10.2301 7.26601Z" fill="black"/>
<path d="M6.2057 7.26601C5.83789 7.26601 5.53937 6.94792 5.53937 6.55599C5.53937 6.16405 5.83789 5.84596 6.2057 5.84596C6.57352 5.84596 8.10375 5.84596 8.10375 5.84596C8.47156 5.84596 8.77008 6.16405 8.77008 6.55599C8.77008 6.94792 8.47156 7.26601 8.10375 7.26601C8.10375 7.26601 6.57352 7.26601 6.2057 7.26601Z" fill="#29D305"/>
<path d="M6.12677 10.5793C5.80252 10.5793 5.53937 10.2612 5.53937 9.86929C5.53937 9.47736 5.80252 9.15927 6.12677 9.15927C6.45102 9.15927 17.8748 9.15927 17.8748 9.15927C18.1991 9.15927 18.4622 9.47736 18.4622 9.86929C18.4622 10.2612 18.1991 10.5793 17.8748 10.5793C17.8748 10.5793 6.45102 10.5793 6.12677 10.5793Z" fill="black"/>
</svg>

<svg width="24" height="24" fill="none" xmlns="http://www.w3.org/2000/svg"><path d="M2.25 21.999c-1.241 0-2.25-1.035-2.25-2.308 0-.325.065-.64.194-.937l2.056-4.615V4.308C2.25 3.035 3.259 2 4.5 2h15c1.24 0 2.25 1.035 2.25 2.308v9.832l2.057 4.615c.503 1.163-.01 2.53-1.143 3.046-.29.131-.597.199-.914.199H2.25v-.001zm-.689-2.612a.774.774 0 00-.061.305c0 .424.337.77.75.77h19.5a.73.73 0 00.305-.067.778.778 0 00.38-1.014l-1.917-4.305H3.482l-1.921 4.31zm18.689-5.85v-9.23a.76.76 0 00-.75-.769h-15a.76.76 0 00-.75.77v9.23h16.5z" fill="#000"/><path d="M10.5 18.922a.76.76 0 01-.75-.769.76.76 0 01.75-.77h3a.76.76 0 01.75.77.76.76 0 01-.75.77h-3zM10.23 7.266c-.296 0-.537-.318-.537-.71 0-.392.24-.71.537-.71h7.695c.297 0 .537.318.537.71 0 .392-.24.71-.537.71H10.23z" fill="#000"/><path d="M6.206 7.266c-.368 0-.667-.318-.667-.71 0-.392.299-.71.667-.71h1.898c.368 0 .666.318.666.71 0 .392-.298.71-.666.71H6.206z" fill="#29D305"/><path d="M6.127 10.58c-.324 0-.588-.319-.588-.71 0-.393.264-.71.588-.71h11.748c.324 0 .587.317.587.71 0 .391-.263.71-.587.71H6.127z" fill="#000"/></svg>
